img/f7_menu.svg

<svg width="60" height="60" viewBox="0 0 60 60" fill="none" xmlns="http://www.w3.org/2000/svg">
<g id="f7:menu">
<path id="Vector" fill-rule="evenodd" clip-rule="evenodd" d="M10.7143 38.5714C11.5668 38.5714 12.3843 38.9101 12.9871 39.5129C13.5899 40.1157 13.9286 40.9332 13.9286 41.7857C13.9286 42.6382 13.5899 43.4558 12.9871 44.0585C12.3843 44.6613 11.5668 45 10.7143 45C9.8618 45 9.04424 44.6613 8.44144 44.0585C7.83865 43.4558 7.5 42.6382 7.5 41.7857C7.5 40.9332 7.83865 40.1157 8.44144 39.5129C9.04424 38.9101 9.8618 38.5714 10.7143 38.5714ZM49.2836 39.6429C50.4686 39.6429 51.4286 40.5943 51.4286 41.7857C51.4286 42.9696 50.475 43.9286 49.2836 43.9286H19.2879C19.0061 43.9294 18.727 43.8746 18.4665 43.7672C18.206 43.6599 17.9693 43.5021 17.77 43.303C17.5707 43.1038 17.4126 42.8673 17.305 42.6069C17.1974 42.3465 17.1423 42.0675 17.1429 41.7857C17.1429 40.6018 18.0964 39.6429 19.2879 39.6429H49.2836ZM10.7143 27.8571C11.5668 27.8571 12.3843 28.1958 12.9871 28.7986C13.5899 29.4014 13.9286 30.2189 13.9286 31.0714C13.9286 31.9239 13.5899 32.7415 12.9871 33.3443C12.3843 33.9471 11.5668 34.2857 10.7143 34.2857C9.8618 34.2857 9.04424 33.9471 8.44144 33.3443C7.83865 32.7415 7.5 31.9239 7.5 31.0714C7.5 30.2189 7.83865 29.4014 8.44144 28.7986C9.04424 28.1958 9.8618 27.8571 10.7143 27.8571ZM49.2836 28.9286C50.4686 28.9286 51.4286 29.88 51.4286 31.0714C51.4286 32.2554 50.475 33.2143 49.2836 33.2143H19.2879C19.0061 33.2151 18.727 33.1603 18.4665 33.0529C18.206 32.9456 17.9693 32.7878 17.77 32.5887C17.5707 32.3896 17.4126 32.153 17.305 31.8926C17.1974 31.6322 17.1423 31.3532 17.1429 31.0714C17.1429 29.8875 18.0964 28.9286 19.2879 28.9286H49.2836ZM10.7143 17.1429C11.5668 17.1429 12.3843 17.4815 12.9871 18.0843C13.5899 18.6871 13.9286 19.5047 13.9286 20.3571C13.9286 21.2096 13.5899 22.0272 12.9871 22.63C12.3843 23.2328 11.5668 23.5714 10.7143 23.5714C9.8618 23.5714 9.04424 23.2328 8.44144 22.63C7.83865 22.0272 7.5 21.2096 7.5 20.3571C7.5 19.5047 7.83865 18.6871 8.44144 18.0843C9.04424 17.4815 9.8618 17.1429 10.7143 17.1429ZM49.2836 18.2143C50.4686 18.2143 51.4286 19.1657 51.4286 20.3571C51.4286 21.5411 50.475 22.5 49.2836 22.5H19.2879C19.0061 22.5008 18.727 22.446 18.4665 22.3386C18.206 22.2313 17.9693 22.0735 17.77 21.8744C17.5707 21.6753 17.4126 21.4387 17.305 21.1783C17.1974 20.918 17.1423 20.6389 17.1429 20.3571C17.1429 19.1732 18.0964 18.2143 19.2879 18.2143H49.2836Z" fill="white"/>
</g>
</svg>

<svg xmlns="http://www.w3.org/2000/svg" width="60" height="60" fill="none"><path fill="#fff" fill-rule="evenodd" d="M10.714 38.571a3.214 3.214 0 1 1 0 6.429 3.214 3.214 0 0 1 0-6.429m38.57 1.072c1.185 0 2.145.951 2.145 2.143a2.14 2.14 0 0 1-2.145 2.143H19.288a2.14 2.14 0 0 1-2.145-2.143 2.14 2.14 0 0 1 2.145-2.143zm-38.57-11.786a3.214 3.214 0 1 1 0 6.428 3.214 3.214 0 0 1 0-6.428m38.57 1.072c1.185 0 2.145.951 2.145 2.142a2.14 2.14 0 0 1-2.145 2.143H19.288a2.14 2.14 0 0 1-2.145-2.143 2.14 2.14 0 0 1 2.145-2.142zm-38.57-11.786a3.214 3.214 0 1 1 0 6.428 3.214 3.214 0 0 1 0-6.428m38.57 1.071c1.185 0 2.145.952 2.145 2.143a2.14 2.14 0 0 1-2.145 2.143H19.288a2.14 2.14 0 0 1-2.145-2.143 2.14 2.14 0 0 1 2.145-2.143z" clip-rule="evenodd"/></svg>
